public/logos/SZ.svg

<svg height="388" viewBox="-.4558875 -.4558875 42.538026 16.108025" width="1024" xmlns="http://www.w3.org/2000/svg"><path d="m329.62813 529.51656-4.68125 4.6825v5.76125l4.68125-4.75375h10.37125l5.76125-5.69zm-4.68125 1.00875v-5.76125l2.88124 2.88125zm0 3.67375-2.88 2.88 2.88 2.88125zm0-9.3625v5.68875l-4.68125 4.68125h-16.13125l5.68875-5.69h10.4425z" fill="#00a8eb" transform="translate(-304.13438 -524.76406)"/></svg>

<?xml version="1.0" encoding="UTF-8" standalone="no"?>
<!DOCTYPE svg PUBLIC "-//W3C//DTD SVG 1.0//EN" "http://www.w3.org/TR/2001/REC-SVG-20010904/DTD/svg10.dtd">
<!-- Created with Inkscape (http://www.inkscape.org/) by Marsupilami -->
<svg
   xmlns:svg="http://www.w3.org/2000/svg"
   xmlns="http://www.w3.org/2000/svg"
   version="1.0"
   width="1024"
   height="388"
   viewBox="-0.4558875 -0.4558875 42.538026 16.108025"
   id="svg2623">
  <defs
     id="defs2625" />
  <g
     transform="translate(-304.13438,-524.76406)"
     id="layer1">
    <path
       d="M 329.62813,529.51656 L 324.94688,534.19906 L 324.94688,539.96031 L 329.62813,535.20656 L 339.99938,535.20656 L 345.76063,529.51656 L 329.62813,529.51656 z M 324.94688,530.52531 L 324.94688,524.76406 L 327.82812,527.64531 L 324.94688,530.52531 z M 324.94688,534.19906 L 322.06688,537.07906 L 324.94688,539.96031 L 324.94688,534.19906 z M 324.94688,524.83656 L 324.94688,530.52531 L 320.26563,535.20656 L 304.13438,535.20656 L 309.82313,529.51656 L 320.26563,529.51656 L 324.94688,524.83656"
       id="path2499"
       style="fill:#00a8eb;fill-opacity:1;fill-rule:nonzero;stroke:none" />
  </g>
</svg>
<!-- version: 20080810, original size: 41.626251 15.19625, border: 3% -->
